!!!!SEGMENT: pl-wtm--r-846-1-m_moniuszko-stanislaw--pan-chorazy.krn
!!!cenid: 18xx:3011
!!!COM: Moniuszko, Stanisław
!!!COM-rismID:
!!!CDT: 1819/05/05-1872/06/04
!!!CNT: Polish
!!!OTL: Pan Chorąży
!!!PDT:
!!!AGN: Secular
!!!SMS-siglum: PL-Wtm
!!!SMS-shelfmark: R 846/1/M
!!!SMS-shelfwork: W
!!!SMS-variant:
!!!SMS-altvar:
!!!NIFC-rismSourceID: 1001089588
!!!NIFC-islandoraID:
!!!URL-pdf-islandora:
!!!URL-scan:
!!!ONB-nifc:
!!!AIN: 4 empty
!!!key:
**kern	**dynam	**fing	**kern	**dynam	**fing	**kern	**dynam	**fing	**kern	**dynam	**fing
*part4	*part4	*	*part3	*part3	*	*part2	*part2	*	*part1	*part1	*
*staff4	*	*	*staff3	*	*	*staff2	*	*	*staff1	*	*
*Iempty	*	*	*Iempty	*	*	*Iempty	*	*	*Iempty	*	*
*I"/Wioloncello/ IV.	*	*	*I"/Wioloncello/ III.	*	*	*I"/Wioloncello/ II.	*	*	*I"Wioloncello I. Solo	*	*
*clefF4	*	*	*clefF4	*	*	*clefF4	*	*	*clefC4	*	*
*k[f#c#]	*	*	*k[f#c#]	*	*	*k[f#c#]	*	*	*k[f#c#]	*	*
*D:	*	*	*D:	*	*	*D:	*	*	*D:	*	*
*M3/4	*	*	*M3/4	*	*	*M3/4	*	*	*M3/4	*	*
=1	=1	=1	=1	=1	=1	=1	=1	=1	=1	=1	=1
!	!LO:DY:rj	!	!	!LO:DY:rj	!	!	!	!	!	!	!
8AA'/L	p	.	8A'\L	p	.	4r	.	.	4r	.	.
8AA'/	.	.	8A'\	.	.	.	.	.	.	.	.
8AA'/	.	.	8A'\	.	.	4r	.	.	4r	.	.
8AA'/	.	.	8A'\J	.	.	.	.	.	.	.	.
8AA'/	.	.	8A'\	.	.	8r	.	.	8r	.	.
*	*	*	*	*	*	*	*	*below	*	*	*below
!	!	!	!	!	!	!	!	!	!	!LO:DY:rj	!
8AA'/J	.	.	8r	.	.	[8Au\	.	4	(>8A^u\	p	o
=2	=2	=2	=2	=2	=2	=2	=2	=2	=2	=2	=2
*tremolo	*	*	*	*	*	*	*	*	*	*	*
!LO:TX:b:t=......	!	!	!	!	!	!	!	!	!	!	!
8AA'/L	.	.	4r	.	.	8A\L]	.	.	8B\L)	.	.
.	.	.	.	.	.	8qA/	.	.	.	.	.
8AA'/	.	.	.	.	.	(16G\L	.	.	8B'\J	.	.
.	.	.	.	.	.	16F#\JJ	.	.	.	.	.
8AA'/	.	.	4r	.	.	8G\L)	.	.	(4.B^\	.	.
8AA'/	.	.	.	.	.	(8E\	.	1	.	.	.
8AA'/	.	.	8r	.	.	8A\)	.	4	.	.	.
8AA'/J	.	.	[8A^^\	.	.	8G'\J	.	.	8c#\)	.	1
=3	=3	=3	=3	=3	=3	=3	=3	=3	=3	=3	=3
!LO:TX:b:t=......	!	!	!	!	!	!	!	!	!	!	!
8AA'/L	.	.	8A\L]	.	.	(8.G\L	.	.	(8.e\L	.	.
8AA'/	.	.	8A'\J	.	.	.	.	.	.	.	.
.	.	.	.	.	.	16F#\Jk)	.	.	16d\Jk)	.	.
8AA'/	.	.	8A'\L	.	.	(4.F#\	.	.	4.d\	.	.
8AA'/	.	.	(8D\	.	.	.	.	.	.	.	.
8AA'/	.	.	8F#\)	.	.	.	.	.	.	.	.
8AA'/J	.	.	[8F#\J	.	.	8A'\)	.	.	[8d^\	.	4
=4	=4	=4	=4	=4	=4	=4	=4	=4	=4	=4	=4
*	*	*	*	*	*	*tremolo	*	*	*	*	*
!LO:TX:b:t=......	!	!	!	!	!	!LO:TX:t=......	!	!	!	!	!
8AA'/L	.	.	8F#\L]	.	.	(8G'\L	.	.	8d\L]	.	.
.	.	.	8qF#/	.	.	.	.	.	8qd/	.	.
8AA'/	.	.	(16E\L	.	.	8G'\)	.	.	(16c#\L	.	.
.	.	.	16D\JJ	.	.	.	.	.	16B\JJ	.	.
8AA'/	.	.	8E\L)	.	.	8G'\	.	.	4.c#\	.	.
8AA'/	.	.	8E'\	.	.	8G'\	.	.	.	.	.
8AA'/	.	.	8E'\	.	.	8G'\	.	.	.	.	.
8AA'/J	.	.	8D'\J	.	.	8G'\J	.	.	8d\)	.	.
*	*	*	*	*	*	*Xtremolo	*	*	*	*	*
!!LO:LB:g=original
=5	=5	=5	=5	=5	=5	=5	=5	=5	=5	=5	=5
!LO:TX:t=......	!	!	!	!	!	!	!	!	!	!	!
8AA'/L	.	.	8D/L	.	.	8G'\L	.	.	(8.f#\L	.	4
8AA'/	.	.	8C#/J	.	.	8G'\J	.	.	.	.	.
.	.	.	.	.	.	.	.	.	16e'\Jk)	.	.
8AA'/	.	.	4C#/	.	.	4G\	.	.	(4.e^\	.	.
8AA'/	.	.	.	.	.	.	.	.	.	.	.
8AA'/	.	.	8r	.	.	8r	.	.	.	.	.
8AA'/J	.	.	8G'v\	.	.	8A'v\	.	.	8A\)	.	.
=6	=6	=6	=6	=6	=6	=6	=6	=6	=6	=6	=6
!LO:TX:t=......	!	!	!	!	!	!	!	!	!	!	!
8AA/L 8DD'/	.	.	8F#'\L	.	.	8A'\L	.	.	(8.f#\L	.	.
8AA/ 8DD'/	.	.	8F#'\	.	.	8A'\	.	.	.	.	.
.	.	.	.	.	.	.	.	.	16e'\Jk)	.	.
8AA/ 8DD'/	.	.	8F#'\	.	.	8A'\	.	.	(8d'\L	.	.
8AA/ 8DD'/	.	.	(8F#\	.	.	(8A\	.	.	8c#'\	.	.
8AA/ 8DD'/	.	.	8D\)	.	.	8F#\)	.	.	8B'\	.	.
8AA/J 8DD'/	.	.	8F#'\J	.	.	8A'\J	.	.	8A'\J)	.	.
*Xtremolo	*	*	*	*	*	*	*	*	*	*	*
=7	=7	=7	=7	=7	=7	=7	=7	=7	=7	=7	=7
8GG/L	.	.	8D'\L	.	.	(8.A\L	.	.	(8.c#\L	.	.
8GG/	.	.	8D'\	.	.	.	.	.	.	.	.
.	.	.	.	.	.	16G\Jk)	.	.	16B\Jk)	.	.
8GG/	.	.	8D'\	.	.	8G'\L	.	.	(4.B\	.	.
8D/ 8GG/	.	.	8G'\	.	.	8B'\	.	.	.	.	.
8D/ 8GG/	.	.	8G'\	.	.	8B'\	.	.	.	.	.
8D/J 8GG/	.	.	8D'\J	.	.	8G'\J	.	.	8B'\)	.	.
=8	=8	=8	=8	=8	=8	=8	=8	=8	=8	=8	=8
*tremolo	*	*	*	*	*	*tremolo	*	*	*	*	*
!	!	!	!	!	!	!LO:TX:t=....	!	!	!	!	!
8AA/L	<	.	8C#'\L	.	.	8A'\L	.	.	(8.A\L	.	.
8AA/	.	.	8D'\	<	.	8A'\	.	.	.	.	.
.	.	.	.	.	.	.	.	.	16B\Jk)	<	.
8AA/	.	.	8E'\	.	.	8A'\	<	.	(8c#'\L	.	.
8AA/	.	.	8F#'\	.	.	8A'\J	.	.	8d'\)	.	.
*	*	*	*	*	*	*Xtremolo	*	*	*	*	*
!LO:TX:b:t=rit	!	!	!LO:TX:b:t=rit	!	!	!LO:TX:b:t=rit.	!	!	!LO:TX:b:t=rit.	!	!
8AA/	.	.	8G~\	.	.	8B~\L	.	.	8e~\	.	.
8AA/J	[[	.	8A~\J	[	.	8c#~\J	[	.	8g~\J	[	.
*Xtremolo	*	*below	*	*	*	*	*	*	*	*	*
=9	=9	=9	=9	=9	=9	=9	=9	=9	=9	=9	=9
8DD/L	sfz	.	(8.B\L 8.D\	sfz	.	(8.d\L	sfz	.	(8.g\L	sfz	.
8D/	.	.	.	.	.	.	.	.	.	.	.
.	.	.	16A\Jk)	.	.	16d~\Jk)	.	.	16f#\Jk)	.	.
8D/	.	.	8A'\L	.	.	8f#'\L	.	.	(4.f#^\	.	.
(8FF#/	.	1	(8F#\	.	.	(8A\	.	.	.	.	.
8AA/	.	.	8A\	.	.	8F#\	.	.	.	.	.
8FF#/J)	.	.	8F#\J)	.	.	8A\J)	.	.	8A'\)	.	.
!!LO:PB:g=original
=10	=10	=10	=10	=10	=10	=10	=10	=10	=10	=10	=10
*tremolo	*	*	*	*	*	*	*	*	*	*	*
!LO:TX:b:t=a tempo	!	!	!LO:TX:b:t=a tempo	!	!	!LO:TX:b:t=a tempo	!	!	!LO:TX:b:t=a tempo	!	!
8AA/L 8DD/	.	.	8F#'\L	.	.	8A\L 8D'\	.	.	(8.f#^\L	.	.
8AA/ 8DD/	.	.	8F#'\	.	.	8A\ 8D'\	.	.	.	.	.
.	.	.	.	.	.	.	.	.	16e'\Jk)	.	.
8AA/ 8DD/	.	.	8F#'\	.	.	8A\ 8D'\	.	.	(8d'\L	.	.
8AA/ 8DD/	.	.	(8F#\	.	.	(8A\ 8D\	.	.	8c#'\	.	.
8AA/ 8DD/	.	.	8D\)	.	.	8F#\)	.	.	8B'\	.	.
8AA/J 8DD/	.	.	8F#'\J	.	.	8A\J 8D'\	.	.	8A'\J)	.	.
*Xtremolo	*	*	*	*	*	*	*	*	*	*	*
=11	=11	=11	=11	=11	=11	=11	=11	=11	=11	=11	=11
8GG/L	.	.	(8.D\L	.	.	(8.A\L	.	.	(8.c#^\L	.	.
8D/J 8GG/	.	.	.	.	.	.	.	.	.	.	.
.	.	.	16G\Jk)	.	.	16B\Jk)	.	.	16B\Jk)	.	.
*tremolo	*	*	*	*	*	*	*	*	*	*	*
!LO:TX:t=...	!	!	!	!	!	!	!	!	!	!	!
8D/L 8GG'/	.	.	8G\	.	.	8B\	.	.	(4B\	.	.
8D/ 8GG'/	.	.	4G^\	.	.	4B^\	.	.	.	.	.
8D/J 8GG'/	.	.	.	.	.	.	.	.	8r	.	.
*Xtremolo	*	*	*	*	*	*	*	*	*	*	*
8G/ 8GG/	.	.	(16E\LL	.	.	8G\	.	.	8B'\)	.	.
.	.	.	16D\JJ)	.	.	.	.	.	.	.	.
=12	=12	=12	=12	=12	=12	=12	=12	=12	=12	=12	=12
*tremolo	*	*	*	*	*	*	*	*	*	*	*
8AA/L	.	.	8C#'\L	.	.	8G'\L	.	.	(8.A\L	.	.
8AA/	.	.	8D'\	.	.	8G'\	.	.	.	.	.
.	.	.	.	.	.	.	.	.	16B\Jk)	.	.
8AA/	.	.	8E'\	.	.	8G'\	.	.	8c#~\L	>	.
8AA/	>	.	8F#'\	>	.	8A'\	>	.	8d~\J	.	.
8AA/	.	.	8G'\	.	.	8B'\	.	.	(8.f#\L	.	4
8AA/J	]]	.	8E'\J	]]	.	8c#'\J	]]	.	.	.	.
.	.	.	.	.	.	.	.	.	16e\Jk)	]]	.
*Xtremolo	*	*	*	*	*	*	*	*	*	*	*
=13	=13	=13	=13	=13	=13	=13	=13	=13	=13	=13	=13
!	!	!	!	!	!	!	!	!	!	!LO:DY:t=p.	!
8AA'/L	p	.	(4c#\	p	.	(<[4A\ 4G\	p	.	(4e\	p	.
16r	.	.	.	.	.	.	.	.	.	.	.
16AA'/Jk	.	.	.	.	.	.	.	.	.	.	.
8D'/L	.	.	8d\L)	.	.	8A\] 8F#\)	.	.	8d\)	.	.
8C#'/	.	.	8c#'\	.	.	8r	.	.	8r	.	.
8BB'/	.	.	8B'\	.	.	4r	.	.	8r	.	.
8AA'/J	.	.	8A'\J	.	.	.	.	.	8f#v\	.	.
=14	=14	=14	=14	=14	=14	=14	=14	=14	=14	=14	=14
*	*	*	*tremolo	*	*	*	*	*	*	*	*
!	!	!	!LO:TX:t=......	!	!	!	!	!	!	!	!
4.GG#X/	.	.	8E'\L	.	.	8B\L 8D'\	.	.	(8.e^\L	.	.
.	.	.	8E'\	.	.	8B\ 8D'\	.	.	.	.	.
.	.	.	.	.	.	.	.	.	16B\Jk)	.	.
.	.	.	8E'\	.	.	8B\ 8D'\	.	.	8B'\L	.	.
8GG#/L	.	.	8E'\	.	.	8B\J 8D'\	.	.	(8B\	.	.
8GG#/	.	.	8E'\	.	.	8C#'>/L	.	.	8c#\)	.	.
8GG#/J	.	.	8E'\J	.	.	8BB'>/J	.	.	8d'\J	.	.
*	*	*	*Xtremolo	*	*	*	*	*	*	*	*
=15	=15	=15	=15	=15	=15	=15	=15	=15	=15	=15	=15
8AA/L	.	.	8E\L 8AA\	.	.	8B\L	.	.	(8.d^\L	.	.
8E/J 8AA/	.	.	8A\J	.	.	8A\J	.	.	.	.	.
.	.	.	.	.	.	.	.	.	16c#\Jk)	.	.
*tremolo	*	*	*	*	*	*	*	*	*	*	*
!LO:TX:b:t=....	!	!	!	!	!	!LO:TX:b:t=II.	!	!	!	!	!
8E/L 8AA'/	.	.	8A\L	.	.	[4c#\	.	4	(4.e^\	.	2
8E/ 8AA'/	.	.	8A\J	.	.	.	.	.	.	.	.
8E/ 8AA'/	.	.	8C#/L	.	.	16c#\LL]	.	.	.	.	.
.	.	.	.	.	.	(16B\	<	4	.	.	.
8E/J 8AA'/	.	.	8F#/J	.	.	16A\	.	.	8f#\)	.	.
.	.	.	.	.	.	16C#\JJ)	[[	1	.	.	.
*Xtremolo	*	*	*	*	*	*	*	*	*	*	*
!!LO:LB:g=original
=16	=16	=16	=16	=16	=16	=16	=16	=16	=16	=16	=16
*	*	*^	*	*	*	*	*	*	*	*	*
8E/L 8GG#X/	.	.	.	8D\L	.	.	8D\L	.	.	(8.f#\L	.	.
8D/ 8GG#/	.	.	.	8E\J	.	.	8B\J	.	.	.	.	.
.	.	.	.	.	.	.	.	.	.	16B\Jk)	.	.
*	*	*	*	*tremolo	*	*	*	*	*	*	*	*
!	!	!	!	!LO:TX:t=....	!	!	!	!	!	!	!	!
8D/ 8GG#/	.	.	.	8E'\L	.	.	8B\L	.	.	8B'\L	.	.
8D/ 8EE/	.	4	1	8E'\	.	.	8G#X\J	.	.	(8B\	.	.
8C#/ 8EE/	.	.	.	8E'\	.	.	8A\L	.	.	8c#\)	.	.
8BB/J 8EE/	.	.	.	8E'\J	.	.	8B\J	.	.	8d'\J	.	.
*	*	*v	*v	*	*	*	*	*	*	*	*	*
=17	=17	=17	=17	=17	=17	=17	=17	=17	=17	=17	=17
*tremolo	*	*	*	*	*	*tremolo	*	*	*	*	*
!LO:TX:b:t=......	!	!	!LO:TX:t=....	!	!	!LO:TX:t=....	!	!	!	!	!
8AA'/L	.	.	8E'\L	.	.	8A'\L	.	.	(8.d\L	.	.
8AA'/	.	.	8E'\	.	.	8A'\	.	.	.	.	.
.	.	.	.	.	.	.	.	.	16c#\Jk)	.	.
8AA'/	.	.	8E'\	.	.	8A'\	.	.	4c#\	.	.
8AA'/	.	.	8E'\J	.	.	8A'\J	.	.	.	.	.
*	*	*	*Xtremolo	*	*	*Xtremolo	*	*	*	*	*
8AA'/	.	.	8E\	pp	.	8A'\L	.	.	8r	.	.
8AA'/J	pp	.	8r	.	.	[8A^^^\J	pp	.	(8A^u\	pp	.
=18||	=18||	=18||	=18||	=18||	=18||	=18||	=18||	=18||	=18||	=18||	=18||
8AA/L	.	.	2r	.	.	8A\L]	.	.	8B\L)	.	.
.	.	.	.	.	.	(8qA/	.	.	.	.	.
8AA/	.	.	.	.	.	(16G\L)	.	.	8B'\J	.	.
.	.	.	.	.	.	16F#\JJ	.	.	.	.	.
8AA/	.	.	.	.	.	8G\L)	.	.	(4.B\	.	.
8AA/	.	.	.	.	.	(8E\	.	.	.	.	.
8AA/	.	.	8r	.	.	8A\)	.	.	.	.	.
8AA/J	.	.	8A\	.	.	8G'\J	.	.	8c#\)	.	1
=19	=19	=19	=19	=19	=19	=19	=19	=19	=19	=19	=19
8AA/L	.	.	8A\L	.	.	(8.G\L	.	.	(8.e\L	.	.
8AA/	.	.	8A\J	.	.	.	.	.	.	.	.
.	.	.	.	.	.	16F#\Jk)	.	.	16d\Jk)	.	.
8AA/	.	.	8A'\L	.	.	(4.F#\	.	.	4.d\	.	.
8AA/	.	.	(8D\	.	.	.	.	.	.	.	.
8AA/	.	.	8F#\)	.	.	.	.	.	.	.	.
8AA/J	.	.	[8F#^\J	.	.	8A'\)	.	.	[8d^\	.	4
=20	=20	=20	=20	=20	=20	=20	=20	=20	=20	=20	=20
*	*	*	*	*	*	*tremolo	*	*	*	*	*
!	!	!	!	!	!	!LO:TX:a:t=......	!	!	!	!	!
8AA/L	.	.	8F#\L]	.	.	8G'\L	.	.	8d\L]	.	.
.	.	.	(8qF#/	.	.	.	.	.	(8qd/	.	.
8AA/	.	.	(16E\L)	.	.	8G'\	.	.	(16c#\L)	.	.
.	.	.	16D\JJ	.	.	.	.	.	16B\JJ	.	.
8AA/	.	.	8E\L)	.	.	8G'\	.	.	4.c#\	.	.
8AA/	.	.	8E'\	.	.	8G'\	.	.	.	.	.
8AA/	.	.	8E'\	.	.	8G'\	.	.	.	.	.
8AA/J	.	.	8D'\J	.	.	8G'\J	.	.	8d\)	.	.
*	*	*	*	*	*	*Xtremolo	*	*	*	*	*
=21	=21	=21	=21	=21	=21	=21	=21	=21	=21	=21	=21
8AA/L	.	.	(8D/L	.	.	8G\L	.	.	(8.f#^\L	.	.
8AA/	.	.	8C#/J)	.	.	8G\J	.	.	.	.	.
.	.	.	.	.	.	.	.	.	16e\Jk)	.	.
8AA/	.	.	4C#/	.	.	4G\	.	.	4.e\	.	.
8AA/	.	.	.	.	.	.	.	.	.	.	.
8AA/	.	.	8r	.	.	8r	.	.	.	.	.
8AA/J	.	.	8C#v/	.	.	8Gv\	.	.	8Av\	.	.
!!LO:LB:g=original
=22	=22	=22	=22	=22	=22	=22	=22	=22	=22	=22	=22
*	*	*	*tremolo	*	*	*	*	*	*	*	*
!	!	!	!LO:TX:t=......	!	!	!	!	!	!	!	!
8AA/L 8DD/	.	.	8D'\L	.	.	8F#\L	.	.	(8.f#\L	.	.
8AA/ 8DD/	.	.	8D'\	.	.	8F#\J	.	.	.	.	.
.	.	.	.	.	.	.	.	.	16e'\Jk)	.	.
*	*	*	*	*	*	*tremolo	*	*	*	*	*
!	!	!	!	!	!	!LO:TX:t=....	!	!	!	!	!
8AA/ 8DD/	.	.	8D'\	.	.	8F#'\L	.	.	(8d'\L	.	.
8AA/ 8DD/	.	.	8D'\	.	.	8F#'\	.	.	8c#'\	.	.
8AA/ 8DD/	.	.	8D'\	.	.	8F#'\	.	.	8B'\	.	.
8AA/J 8DD/	.	.	8D'\J	.	.	8F#'\J	.	.	8A'\J)	.	.
*Xtremolo	*	*	*Xtremolo	*	*	*Xtremolo	*	*	*	*	*
=23	=23	=23	=23	=23	=23	=23	=23	=23	=23	=23	=23
8GG/L	.	.	8D\L	.	.	(8.A\L	.	.	(8.c#\L	.	.
8GG/	.	.	8D\J	.	.	.	.	.	.	.	.
.	.	.	.	.	.	16G\Jk)	.	.	16B\Jk)	.	.
8D/ 8GG/	.	.	8D\L	.	.	8G'\L	.	.	(4.B^\	.	.
8D/ 8GG/	.	.	8G\	.	.	8B'\	.	.	.	.	.
8D/ 8GG/	.	.	8G\	.	.	8B'\	.	.	.	.	.
8D/J 8GG/	.	.	8D\J	.	.	8G'\J	.	.	8B'\)	.	.
=24	=24	=24	=24	=24	=24	=24	=24	=24	=24	=24	=24
*tremolo	*	*	*	*	*	*	*	*	*	*	*
8AA/L	.	.	8C#'\L	.	.	8E\L	.	.	(8.A\L	.	.
8AA/	<	.	8D'\	<	.	8E\J	<	.	.	.	.
.	.	.	.	.	.	.	.	.	16B\Jk)	.	.
8AA/	.	.	8E'\	.	.	8A\L	.	.	(8c#'\L	<	.
8AA/	.	.	8F#'\	.	.	8A\J	.	.	8d'\)	.	.
8AA/	.	.	8G~\	.	.	8A~\L	.	.	8e~\	.	.
8AA/J	[	.	8A~\J	[	.	8c#~\J	[	.	8g~\J	[	.
*Xtremolo	*	*	*	*	*	*	*	*	*	*	*
=25	=25	=25	=25	=25	=25	=25	=25	=25	=25	=25	=25
8DD/L	.	.	(8.B\L 8.D\	>	.	(8.d\L	sf	.	(8.g\L	sf	.
8D/J	.	.	.	.	.	.	.	.	.	.	.
.	.	.	16A\Jk)	.	.	16d~\Jk)	.	.	16f#\Jk)	.	.
8D/L	.	.	8A\	.	.	8d\L	.	.	(4.f#^\	.	.
8FF#^/	.	.	8r	]	.	8F#^\	.	.	.	.	.
8AA^/	.	.	4r	.	.	8A^\	.	.	.	.	.
8FF#^/J	.	.	.	.	.	8F#^\J	.	.	8A'\)	.	.
=26	=26	=26	=26	=26	=26	=26	=26	=26	=26	=26	=26
8DD/L	.	.	8A\L 8D\	.	.	8F#\L	.	.	(8.f#\L	.	.
8GG/	<	.	8C#\	<	.	8A\J	.	.	.	.	.
.	.	.	.	.	.	.	.	.	16e\Jk)	.	.
*	*	*	*	*	*	*tremolo	*	*	*	*	*
!	!	!	!	!	!	!LO:TX:t=....	!	!	!	!	!
8FF#/	.	.	8D\	.	.	8D'\L	<	.	8d'\L	<	.
8C#/	.	.	8F#\	.	.	8D'\	.	.	8d'\	.	.
8BB/	.	.	8G\	.	.	8D'\	.	.	(8.g\	.	.
8AA/J	[	.	8A\J	[	.	8D'\J	[	.	.	.	.
.	.	.	.	.	.	.	.	.	16f#\Jk)	[	.
*	*	*	*	*	*	*Xtremolo	*	*	*	*	*
=27	=27	=27	=27	=27	=27	=27	=27	=27	=27	=27	=27
[4GG/	f	.	(8.A\L	f	.	(8.B\L	f	.	(8.f#\L	f	.
.	.	.	16G\Jk)	.	.	16B'\Jk)	.	.	16e\Jk)	.	.
8GG/L]	.	.	(4.E\	.	.	(8B\L	.	.	(4.e^\	.	.
(8FF#/	.	.	.	.	.	8A#X\	.	.	.	.	.
8GG/)	.	.	.	.	.	8B\)	.	.	.	.	.
8GG#X'/J	.	.	8E#X\)	.	.	8B'\J	.	.	8d\)	.	1
!!LO:PB:g=original
=28	=28	=28	=28	=28	=28	=28	=28	=28	=28	=28	=28
8AA/	.	.	8F#\	.	.	8A\ 8D\	.	.	(8.d\L	.	.
8r	.	.	8r	.	.	8r	.	.	.	.	.
.	.	.	.	.	.	.	.	.	16f#\Jk	.	1
8r	.	.	8r	.	.	8r	.	.	8a\L)	.	3
(8AA'/L	p	.	(8A'\L	p	.	(8F#|\L	p	.	(8A'\	p	.
8AA'/	.	.	8G'\	.	.	8G'\	.	.	8B'\	.	.
8AA'/J)	.	.	8E'\J)	.	.	8G'\J)	.	.	8c#'\J)	.	1
=29	=29	=29	=29	=29	=29	=29	=29	=29	=29	=29	=29
!LO:TX:t=P:rytm:problem	!	!	!	!	!	!	!	!	!	!	!
(8.AA/L	.	.	([4A\ 4C#\	.	.	(4G\	.	.	(4e^<\	.	.
32BB/LL	.	.	.	.	.	.	.	.	.	.	.
32C#/JJJ	.	.	.	.	.	.	.	.	.	.	.
8D/L)	.	.	8A\] 8D\)	.	.	8F#\L)	.	.	8d\)	.	.
!	!	!	!	!	!	!LO:SIC:v:s=8A\	!	!	!	!	!
8AA^/	<	.	8A^\L	<	.	8B\	<	.	8r	.	.
8FF#^/	.	.	8F#^\	.	.	8F#^\	.	.	4r	.	.
8DD^/J	[[	.	8D^\J	[[	.	8D^\J	[[	.	.	.	.
=30||	=30||	=30||	=30||	=30||	=30||	=30||	=30||	=30||	=30||	=30||	=30||
*k[]	*	*	*k[]	*	*	*k[]	*	*	*k[]	*	*
*	*	*	*tremolo	*	*	*	*	*	*	*	*
!	!	!	!LO:TX:t=....	!	!	!	!	!	!LO:TX:a:t=con anima	!	!
!LO:TX:b:t=con anima	!	!	!LO:TX:b:t=con anima	!	!	!LO:TX:b:t=con anima	!	!	!LO:TX:b:t=con anima	!	!
4.E/ 4.AA/	mf	.	8E'\L	mf	.	(8.A\L	mf	.	(8.c^^\L	mf	.
.	.	.	8E'\	.	.	.	.	.	.	.	.
.	.	.	.	.	.	16B'\Jk)	.	.	16d\Jk)	.	.
*	*	*	*	*	*	*tremolo	*	*	*	*	*
!	!	!	!	!	!	!LO:TX:t=....	!	!	!	!	!
.	.	.	8E'\	.	.	8c'\L	.	.	4.ev\	.	.
8E/L	.	.	8E'\J	.	.	8c'\	.	.	.	.	.
*	*	*	*Xtremolo	*	*	*	*	*	*	*	*
8C/	.	.	8A\L 8E\	.	.	8c'\	.	.	.	.	.
8AA/J	.	.	8A\J 8E\	.	.	8c'\J	.	.	8eu\	.	.
*	*	*	*	*	*	*X*tremolo	*	*	*	*	*
=31	=31	=31	=31	=31	=31	=31	=31	=31	=31	=31	=31
8DD/L	.	.	8A\L 8D\	.	.	(8.e\L	.	.	(8.g\L	.	.
8D/J	.	.	8A\J	.	.	.	.	.	.	.	.
.	.	.	.	.	.	16d\Jk)	.	.	16f\Jk)	.	.
*	*	*	*tremolo	*	*	*	*	*	*	*	*
!	!	!	!LO:TX:t=....	!	!	!	!	!	!	!	!
8D/L	.	.	8A'\L	.	.	4.du\	.	.	4.fu\	.	.
8AA/	.	.	8A'\	.	.	.	.	.	.	.	.
8D/	.	.	8A'\	.	.	.	.	.	.	.	.
8DD/J	.	.	8A'\J	.	.	8cv\	.	.	8ev\	.	.
*	*	*	*Xtremolo	*	*	*	*	*	*	*	*
=32	=32	=32	=32	=32	=32	=32	=32	=32	=32	=32	=32
8GG/L	.	.	8G\L	.	.	(8.c\L	.	.	(8.e\L	.	.
8GG/	.	.	8G\J	.	.	.	.	.	.	.	.
.	.	.	.	.	.	16B\Jk)	.	.	16d\Jk)	.	.
8GG/	.	.	8G\L	.	.	8B'\L	.	.	8d'\L	.	.
8FF/	.	.	8B\	.	.	(8d\	.	.	8d'\	.	.
8EE/	.	.	8c\	.	.	8c\	.	.	(8.g\	.	.
8DD/J	.	.	8G\J	.	.	8B\J)	.	.	.	.	.
.	.	.	.	.	.	.	.	.	16f\Jk)	.	.
!!LO:LB:g=original
=33	=33	=33	=33	=33	=33	=33	=33	=33	=33	=33	=33
8CC/L	.	.	8G\L	.	.	(8.c\L	.	.	(8.f\L	.	.
8C/J	.	.	8G\J	.	.	.	.	.	.	.	.
.	.	.	.	.	.	16c'\Jk)	.	.	16e\Jk)	.	.
8C/L	.	.	8E\L	.	.	8c\L	.	.	8e'\	.	.
(8C/	.	.	8E\	.	.	8G\	.	.	4e^u\	.	.
8BB/	.	.	8E\	.	.	8G#X\	.	.	.	.	.
8AA/J)	.	.	8C\J	.	.	8A\J	.	.	8ev\	.	.
=34	=34	=34	=34	=34	=34	=34	=34	=34	=34	=34	=34
*tremolo	*	*	*tremolo	*	*	*tremolo	*	*	*	*	*
!LO:TX:b:t=..	!	!	!	!	!	!LO:TX:t=..	!	!	!LO:TX:b:t=dolce	!	!
8GG#X'/L	.	.	8E\L	.	.	8B'\L	.	.	(8.e^\L	.	1
8EE'/	.	.	8E\	.	.	8G#X'\	.	.	.	.	.
.	.	.	.	.	.	.	.	.	16B\Jk)	.	1
!LO:TX:b:t=..	!	!	!	!	!	!LO:TX:t=..	!	!	!	!	!
8GG#'/	.	.	8E\	.	.	8B'\	.	.	8B\L	.	.
8EE'/J	.	.	8E\J	.	.	8G#'\J	.	.	(8B\	.	.
*Xtremolo	*	*	*Xtremolo	*	*	*Xtremolo	*	*	*	*	*
!	!	!	!LO:TX:a:t=Solo	!	!	!	!	!	!	!	!
4AA/	.	.	8E\L	.	.	8E\L	.	.	8.d^\	.	.
.	.	.	8D#X\J	.	.	8A\J	.	2	.	.	.
.	.	.	.	.	.	.	.	.	16c\Jk)	.	.
=35	=35	=35	=35	=35	=35	=35	=35	=35	=35	=35	=35
*tremolo	*	*	*	*	*	*	*	*	*	*	*
!LO:TX:b:t=......	!	!	!	!	!	!LO:N:vis=8..	!	!	!	!	!
8EE'/L	.	.	(8.E\L	.	.	(8.G#X\L	.	1	[4B\	.	.
8EE'/	.	.	.	.	.	.	.	.	.	.	.
.	.	.	16BB\Jk)	.	.	32B\LL	.	.	.	.	.
.	.	.	.	.	.	32A\JJJ	.	.	.	.	.
8EE'/	.	.	8BB\L|	.	.	8G#\L)	.	.	8B\]	.	.
8EE'/	.	.	(8BB\	.	.	8E\	.	.	8r	.	.
!	!	!	!LO:TX:b:t=III	!	!	!	!	!	!	!	!
8EE'/	.	.	8.D\	.	2	8E\	.	.	4r	.	.
8EE'/J	.	.	.	.	.	8E\J	.	.	.	.	.
.	.	.	16C\Jk)	.	.	.	.	.	.	.	.
*Xtremolo	*	*	*	*	*	*	*	*	*	*	*
=36	=36	=36	=36	=36	=36	=36	=36	=36	=36	=36	=36
!	!	!	!LO:TX:b:t=un poco ritenu_to	!	!	!	!	!	!LO:TX:b:t=un poco ritenu_to	!	!
[4BB/ [4EE/	p	.	8E'\L	p	.	8G#X\L	p	.	(8.e^\L	p	4
.	.	.	8E'\J	.	.	8G#\J	.	.	.	.	.
.	.	.	.	.	.	.	.	.	16B\Jk)	.	1
8BB/] 8EE/]	.	.	8E'\L	.	.	8G#\L	.	.	8B'\L	.	.
8EE/L	.	.	(8GG#X\	.	.	8E\	.	.	8B'\	.	.
8EE/	.	.	8BB\	.	.	8E\	.	.	(8.d^\	.	.
8EE/J	.	.	8AA\J)	.	.	8E\J	.	.	.	.	.
.	.	.	.	.	.	.	.	.	16c\Jk)	.	.
=37	=37	=37	=37	=37	=37	=37	=37	=37	=37	=37	=37
!	!	!	!	!	!	!	!	!	!LO:N:vis=8..	!	!
8EE/L	.	.	(8.E/L	.	3	4G#X\	.	.	(8.B\L	.	.
8EE/J	.	.	.	.	.	.	.	.	.	.	.
.	.	.	16BB/Jk)	.	.	.	.	.	32d\LL	.	.
.	.	.	.	.	.	.	.	.	32c\JJJ	.	.
8EE/L	.	.	8BB'/	.	.	8BB/	.	.	8B\)	.	.
8BB/	.	.	4E^\	.	.	4G#^\	.	.	4B^v\	.	.
8BB/	.	.	.	.	.	.	.	.	.	.	.
8BB/J	.	.	8D#X'\	.	.	(8A\ 8F#X\	.	.	(8B^\	.	.
!!LO:LB:g=original
=38||	=38||	=38||	=38||	=38||	=38||	=38||	=38||	=38||	=38||	=38||	=38||
*k[f#c#]	*	*	*k[f#c#]	*	*	*k[f#c#]	*	*	*k[f#c#]	*	*
*	*	*	*tremolo	*	*	*	*	*	*	*	*
!	!	!	!LO:TX:b:t=a tempo	!	!	!	!	!	!LO:TX:a:t=a tempo I.	!	!
8EE/L	pp	.	8E\L	pp	.	8A\L)	pp	.	8B\L)	pp	.
.	.	.	.	.	.	(8qA/	.	.	.	.	.
8BB/	.	.	8E\	.	.	(16G#X\L)	.	.	8B\J	.	.
.	.	.	.	.	.	16F#\JJ	.	.	.	.	.
8E/	.	.	8E\	.	.	8G#\L)	.	.	(4.B^\	.	.
8EE/	.	.	8E\	.	.	8G#\	.	.	.	.	.
8AA/	.	.	8E\	.	.	8Gn\	.	.	.	.	.
8AA/J	.	.	8E\J	.	.	8G\J	.	.	8c#\)	.	1
=39	=39	=39	=39	=39	=39	=39	=39	=39	=39	=39	=39
*tremolo	*	*	*Xtremolo	*	*	*	*	*	*	*	*
!LO:TX:b:t=......	!	!	!	!	!	!	!	!	!	!	!
8AA'/L	.	.	8A\L	.	.	(8.G\L	.	.	(8.e^\L	.	.
8AA'/	.	.	8A\J	.	.	.	.	.	.	.	.
.	.	.	.	.	.	16F#\Jk)	.	.	16d\Jk)	.	.
8AA'/	.	.	8A\L	.	.	(4.F#\	.	.	4.d\	.	.
8AA'/	.	.	(8D\	.	.	.	.	.	.	.	.
8AA'/	.	.	8F#\)	.	.	.	.	.	.	.	.
8AA'/J	.	.	[8F#\J	.	.	8A\)	.	.	[8d^\	.	4
=40	=40	=40	=40	=40	=40	=40	=40	=40	=40	=40	=40
*	*	*	*	*	*	*tremolo	*	*	*	*	*
!	!	!	!	!	!	!LO:TX:t=......	!	!	!	!	!
8AA/L	.	.	8F#\L]	.	.	8G'\L	.	.	8d\L]	.	.
.	.	.	(8qF#/	.	.	.	.	.	(8qd/	.	.
8AA/	.	.	(16E\L)	.	.	8G'\	.	.	(16c#\L)	.	.
.	.	.	16D\JJ	.	.	.	.	.	16B\JJ	.	.
8AA/	.	.	8E\L)	.	.	8G'\	.	.	4.c#\	.	.
8AA/	.	.	8E'\	.	.	8G'\	.	.	.	.	.
8AA/	.	.	8E'\	.	.	8G'\	.	.	.	.	.
8AA/J	.	.	8D'\J	.	.	8G'\J	.	.	8d\)	.	.
*	*	*	*	*	*	*Xtremolo	*	*	*	*	*
=41	=41	=41	=41	=41	=41	=41	=41	=41	=41	=41	=41
8AA/L	.	.	(8.D/L	.	.	8G\L	.	.	(8.f#\L	.	.
8AA/	.	.	.	.	.	8G\J	.	.	.	.	.
.	.	.	16C#/Jk)	.	.	.	.	.	16e'\Jk)	.	.
8AA/	.	.	4C#/	.	.	4G\	.	.	4.e\	.	.
8AA/	.	.	.	.	.	.	.	.	.	.	.
8AA/	.	.	8r	.	.	8r	.	.	.	.	.
8AA/J	.	.	8G\	.	.	8A\	.	.	8Av\	.	.
=42	=42	=42	=42	=42	=42	=42	=42	=42	=42	=42	=42
8AA/L 8DD/	.	.	8F#'\L	.	.	8A'\L	.	.	(8.f#^\L	.	.
8AA/ 8DD/	.	.	8F#'\	.	.	8A'\	.	.	.	.	.
.	.	.	.	.	.	.	.	.	16e'\K)	.	.
8AA/ 8DD/	.	.	8F#'\	.	.	8A'\	.	.	(8d'\	.	.
8AA/ 8DD/	.	.	(8F#\	.	.	(8A\	.	.	8c#'\	.	.
8AA/ 8DD/	.	.	8D\)	.	.	8F#\)	.	.	8B'\	.	.
8AA/J 8DD/	.	.	8F#'\J	.	.	8A'\J	.	.	8A'\J)	.	.
*Xtremolo	*	*	*	*	*	*	*	*	*	*	*
!!LO:PB:g=original
=43	=43	=43	=43	=43	=43	=43	=43	=43	=43	=43	=43
8GG/L	.	.	8D\L	.	.	(8.A\L	.	.	(8.c#\L	.	.
8GG/J	.	.	8D\J	.	.	.	.	.	.	.	.
.	.	.	.	.	.	16G\Jk)	.	.	16B\Jk)	.	.
8GG/L	.	.	8D\L	.	.	8G'\L	.	.	(4.B^\	.	.
8D/ 8GG/	.	.	8G\	.	.	8B'\	.	.	.	.	.
8D/ 8GG/	.	.	8G\	.	.	8B'\	.	.	.	.	.
8D/J 8GG/	.	.	8D\J	.	.	8G'\J	.	.	8B'\)	.	.
=44	=44	=44	=44	=44	=44	=44	=44	=44	=44	=44	=44
*tremolo	*	*	*	*	*	*tremolo	*	*	*	*	*
!	!	!	!	!	!	!LO:TX:t=....	!	!	!	!	!
8AA/L	.	.	8C#\L	.	.	8A'\L	.	.	(8.A\L	.	.
8AA/	<	.	8D\	<	.	8A'\	.	.	.	.	.
.	.	.	.	.	.	.	<	.	16B\Jk)	.	.
8AA/	.	.	8E\	.	.	8A'\	.	.	(8c#'\L	<	.
8AA/	.	.	8F#\	.	.	8A'\J	.	.	8d'\)	.	.
*	*	*	*	*	*	*Xtremolo	*	*	*	*	*
8AA/	.	.	8G\	.	.	8B~\L	.	.	8e~\	.	.
8AA/J	[	.	8A\J	[	.	8c#~\J	[	.	8g~\J	[	.
*Xtremolo	*	*	*	*	*	*	*	*	*	*	*
=45	=45	=45	=45	=45	=45	=45	=45	=45	=45	=45	=45
!	!LO:DY:t=sforz	!	!	!LO:DY:t=sforz	!	!	!LO:DY:t=sforz.	!	!	!LO:DY:t=sforz.	!
8DD/L	sf	.	(8.B\L 8.D\	sf	.	(8.d\L	sf	.	(8.g\L	sf	.
8D/J	.	.	.	.	.	.	.	.	.	.	.
.	.	.	16A\Jk)	.	.	16d'\Jk)	.	.	16f#\Jk)	.	.
8D/L	.	.	8A'\L	.	.	8d\L	.	.	(4.f#^\	.	.
8FF#^/	.	.	8F#^\	.	.	8F#^\	.	.	.	.	.
8AA^/	.	.	8A^\	.	.	8A^\	.	.	.	.	.
8FF#^/J	.	.	8F#^\J	.	.	8F#^\J	.	.	8A'\)	.	.
=46	=46	=46	=46	=46	=46	=46	=46	=46	=46	=46	=46
(8DD/L	.	.	8A\L 8D\	.	.	8d\L	.	.	(8.f#^\L	.	.
8AA/	.	.	8E\	<	.	8A\J	.	.	.	.	.
.	.	.	.	.	.	.	.	.	16e\Jk)	.	.
8D/)	<	.	8F#\	.	.	8A\L	<	.	8d'\L	.	.
8C#'/	.	.	8F#\	.	.	8A\	.	.	8d'\	<	.
8BB'/	.	.	8G\	.	.	8d\	.	.	(8.g\	.	.
8AA'/J	[[	.	8A\J	[	.	8d\J	[	.	.	.	.
.	.	.	.	.	.	.	.	.	16f#\Jk)	[	.
=47	=47	=47	=47	=47	=47	=47	=47	=47	=47	=47	=47
[4GG/	>	.	(8.A\L	>	.	(8.B\L	>	.	(8.f#\L	.	.
.	.	.	16G\Jk)	]	.	16B~\Jk)	]	.	16e\Jk)	.	.
8GG/L]	]	.	(4.E\	.	.	(8B\L	.	.	(4.e^\	.	.
(8FF#/	.	1	.	.	.	8A#X\	.	.	.	.	.
8GG/	.	.	.	.	.	8B\)	.	.	.	.	.
8GG#X/J)	.	.	8E#X\)	.	.	8B'\J	.	.	8d\)	.	1
!!LO:LB:g=original
=48	=48	=48	=48	=48	=48	=48	=48	=48	=48	=48	=48
4AA/	.	.	8F#\	.	.	8A\ 8D\	.	.	(8.d\L	.	.
.	.	.	8r	.	.	8r	.	.	.	.	.
.	.	.	.	.	.	.	.	.	16f#\Jk	.	1
8r	.	.	8r	.	.	8r	.	.	8a\L)	.	.
!LO:TX:b:t=III.	!	!	!	!	!	!	!	!	!	!	!
(8AA'v/L	p	1	(8A'v\L	p	.	(8F#'v\L	p	.	(8A'\	p	.
8AA'/	.	.	8G'\	.	.	8G'\	.	.	8B'\	.	.
8AA'/J)	.	.	8E'\J)	.	.	8G'\J)	.	.	8c#'\J)	.	1
=49	=49	=49	=49	=49	=49	=49	=49	=49	=49	=49	=49
!LO:N:vis=8..	!	!	!	!	!	!	!	!	!	!	!
(<8.AA/L	.	.	(<[4A\ 4C#\	.	.	(4G\	.	.	(4e\	.	.
32BB/LL	.	1	.	.	.	.	.	.	.	.	.
32C#/JJJ	.	.	.	.	.	.	.	.	.	.	.
8D\)	.	.	8A\] 8D\)	.	.	8F#\)	.	.	8d\)	.	.
8D^/L	.	.	8D^/L	<	.	8d^\L	<	.	8r	.	.
8Cn^/	.	.	8Cn^/	.	.	8cn^\	.	.	4r	.	.
8AA^/J	.	.	8AA^/J	[	.	8A^\J	[	.	.	.	.
=50||	=50||	=50||	=50||	=50||	=50||	=50||	=50||	=50||	=50||	=50||	=50||
*k[b-e-]	*	*	*k[b-e-]	*	*	*k[b-e-]	*	*	*k[b-e-]	*	*
!	!LO:DY:rj	!	!	!LO:DY:rj	!	!	!LO:DY:rj	!	!	!LO:DY:rj	!
8GG'/L	f	.	8D/L	f	.	8G\L	f	.	8G/L 8GG/	f	.
8GG'/J	.	.	16r	.	.	16r	.	.	16r	.	.
.	.	.	16D/Jk 16BB-/	.	.	16D\Jk	.	.	16G^/Jk	.	.
8GG'/L	.	.	8D'\L	.	.	8G'\L	.	.	8B-^\L	.	.
8D/ 8GG'/	.	.	8G'\	.	.	8B-'\	.	.	8d^\	.	.
8G/ 8GG'/	.	.	8B-'\	.	.	8d'\	.	.	(8.g^\	.	.
8GG'/J	.	.	8G'\J	.	.	8d'\J	.	.	.	.	.
.	.	.	.	.	.	.	.	.	16f\Jk)	.	.
=51	=51	=51	=51	=51	=51	=51	=51	=51	=51	=51	=51
8CC'/L	.	.	8G\L	.	.	8d\L	.	.	(8.f\L	.	.
16r	.	.	8G\J	.	.	8c\J	.	.	.	.	.
16GG'/Jk	.	.	.	.	.	.	.	.	16e-\Jk)	.	.
*	*	*	*tremolo	*	*	*tremolo	*	*	*	*	*
!	!	!	!LO:TX:t=....	!	!	!LO:TX:t=....	!	!	!	!	!
8C'/L	.	.	8G'\L	.	.	8c'\L	.	.	4e-\	.	.
8E-'/	.	.	8G'\	.	.	8c'\	.	.	.	.	.
8C'/	.	.	8G'\	.	.	8c'\	.	.	8r	.	.
8AA'/J	.	.	8G'\J	.	.	8c'\J	.	.	8e-'\	.	.
*	*	*	*Xtremolo	*	*	*Xtremolo	*	*	*	*	*
=52	=52	=52	=52	=52	=52	=52	=52	=52	=52	=52	=52
8D/L	.	.	8F#X\L	.	.	(8.A\L	.	.	(8.d\L	.	.
8C/	.	.	8D\J	.	.	.	.	.	.	.	.
.	.	.	.	.	.	16F#X\Jk)	.	.	16A\Jk)	.	.
*	*	*	*tremolo	*	*	*	*	*	*	*	*
8BB-/	.	.	8D\L	.	.	8G\L	.	.	8B-'\L	.	.
8AA/	.	.	8D\	.	.	8A\J	.	.	8c'\J	.	.
8GG/	.	.	8D\	.	.	8B-\L	.	.	(8.d^\L	.	.
8FF#X/J	.	.	8D\J	.	.	8D\J	.	.	.	.	.
.	.	.	.	.	.	.	.	.	16A\Jk)	.	.
*	*	*	*Xtremolo	*	*	*	*	*	*	*	*
!!LO:LB:g=original
=53	=53	=53	=53	=53	=53	=53	=53	=53	=53	=53	=53
8GG/L	.	.	(4D\	.	.	(8.A\L	.	.	(4c\	.	.
8GG/J	.	.	.	.	.	.	.	.	.	.	.
.	.	.	.	.	.	16G\Jk)	.	.	.	.	.
8GG/L	>	.	8G\)	.	.	8B-\	.	.	8B-\)	.	.
8BB-/	.	.	8r	.	.	4B-\	.	.	8r	.	.
8GG/	.	.	8r	.	.	.	.	.	4r	.	.
8FFn/J	]	.	8A-X\	.	.	8B-\	.	.	.	.	.
=54	=54	=54	=54	=54	=54	=54	=54	=54	=54	=54	=54
8EE-/L	p	.	(8G\L	p	.	(8B-\L	p	.	(8B-\L	p	.
8BB-/	.	.	16r	.	.	16r	.	.	16r	.	.
.	.	.	16G'\Jk)	.	.	16B-'\Jk)	.	.	16B-'\Jk)	.	.
8E-/	.	.	8G\L	.	.	8G\L	.	.	(4.e-^\	.	4
8EE-/	.	.	8E-\	.	.	8G\	.	.	.	.	.
!	!	!	!	!	!	!LO:SIC:v:s=8A-\	!	!	!	!	!
8FF/	.	.	8E-\	.	.	8A\	.	.	.	.	.
8GG/J	.	.	8E-\J	.	.	8B-\J	.	.	8d\)	.	.
=55	=55	=55	=55	=55	=55	=55	=55	=55	=55	=55	=55
8AA-X/L	.	.	(8.E-\L	.	.	(8.B-\L	.	.	(8.d\L	.	.
8C/	.	.	.	.	.	.	.	.	.	.	.
.	.	.	16E-'\Jk)	.	.	16A-X\Jk)	.	.	16c\Jk)	.	.
8E-/	.	.	8A-X\	.	.	8c\	.	.	(4.c\	.	.
8C/	.	.	4A-\	.	.	4c\	.	.	.	.	.
8AA-/	.	.	.	.	.	.	.	.	.	.	.
!LO:TX:b:t=cres_cen_do_:ext=ud:ext2=ud:problem=dynamics with extension lines	!LO:HP:b:t=cres_cen_do_	!	!LO:TX:b:t=cres_cen_do_:ext=ud:ext2=ud:problem=dynamics with extension lines	!LO:HP:b:t=cres_cen_do_	!	!LO:TX:b:t=cres_cen_do_:ext=ud:ext2=ud:problem=dynamics with extension lines	!LO:HP:b:t=cres_cen_do_	!	!LO:TX:b:t=cres_cen_do_:ext=ud:ext2=ud:problem=dynamics with extension lines	!LO:HP:b:t=cres_cen_do_	!
8GG-X/J	<	.	8A-\	<	.	8c\	<	.	8c'\)	<	.
=56	=56	=56	=56	=56	=56	=56	=56	=56	=56	=56	=56
8FF/L	.	.	8.An\L	.	.	8.c\L	.	.	(8.c\L	.	.
8C/J	.	.	.	.	.	.	.	.	.	.	.
.	.	.	16A\Jk	.	.	16c\Jk	.	.	16c'\Jk)	.	.
8F/L	.	.	8A\L	.	.	8A\L	.	.	(4.f\	.	.
8FF/	.	.	8F\	.	.	8A\	.	.	.	.	.
8GG/	.	.	8F\	.	.	8B-\	.	.	.	.	.
8AA/J	.	.	8F\J	.	.	8c\J	.	.	8e-\)	.	.
=57	=57	=57	=57	=57	=57	=57	=57	=57	=57	=57	=57
8BB-/L	.	.	(8.F\L	.	.	(8.c\L	.	.	(8.e-\L	.	.
8D/J	.	.	.	.	.	.	.	.	.	.	.
.	.	.	16B-\Jk)	.	.	16B-\Jk)	.	.	16d\Jk)	.	.
8F/L	.	.	8B-\	.	.	8d\	.	.	(4.d\	.	.
8D/	.	.	4d^\	.	.	4d^\	.	.	.	.	.
8BB-/	.	.	.	.	.	.	.	.	.	.	.
8AA-X/J	[	.	8c\	[	.	8d\	[	.	8d'\)	[	.
!!LO:PB:g=original
=58	=58	=58	=58	=58	=58	=58	=58	=58	=58	=58	=58
!	!LO:DY:rj	!	!	!LO:DY:rj	!	!	!LO:DY:rj	!	!	!LO:DY:rj	!
8GG/L	ff	.	8Bn\L	ff	.	8.d\L	ff	.	8.d\L	ff	.
8D/	.	.	8B\J	.	.	.	.	.	.	.	.
.	.	.	.	.	.	16d\Jk	.	.	16d\Jk	.	.
!LO:TX:b:t=grave	!	!	!LO:TX:b:t=grave	!	!	!LO:TX:b:t=grave	!	!	!LO:TX:b:t=grave	!	!
8G/J	.	.	8B\L	.	.	8Bn\L	.	.	8g\L	.	.
8D/L 8GG^/	.	.	8B^\	.	.	8f^\	.	.	8a-X^\	.	.
8AAn^/	.	.	8c^\	.	.	8e-^\	.	.	8g^\	.	.
8BBn^/J	.	.	8G^\J	.	.	8d^\J	.	.	8f^\J	.	.
=59	=59	=59	=59	=59	=59	=59	=59	=59	=59	=59	=59
8C/ 8CC/	.	.	8G\	.	.	8e-\	.	.	(8e-\L	.	.
8r	.	.	8r	.	.	8r	.	.	8c\J)	.	.
[4FF#X/	sf	.	(4c\ 4E-\	sf	.	4.An\	sf	.	(4e-^^\	sf	.
8FF#/L]	>	.	8D\L)	>	.	.	>	.	8d\L	>	.
8FF#/J	]]	.	8D'\J	]]	.	8A\	]]	.	8c\J)	]]	.
=60	=60	=60	=60	=60	=60	=60	=60	=60	=60	=60	=60
!	!	!	!	!	!	!	!	!	!LO:TX:b:t=II.	!	!
8GG/L	.	.	8D\	.	.	8G\L	.	.	(8B-/L	.	2
8GG/J	.	.	8r	.	.	8G\J	.	.	8G/J)	.	4
!LO:TX:b:t=rit	!LO:DY:t=piu po	!	!LO:TX:b:t=rit	!LO:DY:t=piu po	!	!	!LO:DY:t=piu po	!	!	!LO:DY:t=piu po	!
2CC#X/	p	.	(4.En^\	p	.	(4GG^/	p	.	((4B-^^\	p	2
.	.	.	.	.	.	.	.	.	16qqc/LL	.	.
!	!	!	!	!	!	!LO:TX:b:t=rit	!	!	!LO:TX:b:t=rit	!	!
.	.	.	.	.	.	.	.	.	16qqB-/JJ)	.	.
.	.	.	.	.	.	8AA/L	.	.	(8A\L	.	.
.	.	.	8G\)	.	.	8BB-/J)	.	.	8G\J))	.	.
=61	=61	=61	=61	=61	=61	=61	=61	=61	=61	=61	=61
8DD/L	.	.	(8.F#X\L	.	.	(4AA/	.	.	(<8.F#X/L	.	.
8AA/J	.	.	.	.	.	.	.	.	.	.	.
.	.	.	16E-\Jk	.	.	.	.	.	16G/Jk	.	.
8BB-/L	.	.	8D\)	.	.	8F#X\)	.	.	4A\)	.	.
8FF#X/	pp	.	8r	.	.	8r	.	.	.	.	.
8AA/	.	.	4r	.	.	8r	.	.	8r	.	.
8DD/J	.	.	.	.	.	[8A\	.	.	(8A^^^\	.	o
=62||	=62||	=62||	=62||	=62||	=62||	=62||	=62||	=62||	=62||	=62||	=62||
*k[f#c#]	*	*	*k[f#c#]	*	*	*k[f#c#]	*	*	*k[f#c#]	*	*
!	!	!	!	!	!	!	!LO:DY:rj	!	!	!LO:DY:rj	!
8GG/L	.	.	4r	.	.	8A\L]	pp	.	8B\L)	pp	.
.	.	.	.	.	.	(8qA/	.	.	.	.	.
8D/	.	.	.	.	.	(16G\L)	.	.	8B'\J	.	.
.	.	.	.	.	.	16F#\JJ	.	.	.	.	.
8GG/	.	.	8r	.	.	8G\)	.	.	(4.B^\	.	.
8EE/	.	.	8E\L	pp	.	4G\	.	.	.	.	.
8AA/	.	.	8E\	.	.	.	.	.	.	.	.
8AA/J	.	.	8E\J	.	.	8G\	.	.	8c#\)	.	1
!!LO:LB:g=original
=63	=63	=63	=63	=63	=63	=63	=63	=63	=63	=63	=63
*tremolo	*	*	*	*	*	*	*	*	*	*	*
8AA/L	.	.	(8A\L	.	.	(8.G\L	.	.	(8.e^\L	.	.
8AA/	.	.	8A'\J)	.	.	.	.	.	.	.	.
.	.	.	.	.	.	16F#\Jk)	.	.	16d\Jk)	.	.
8AA/	.	.	8A'\L	.	.	(4.F#\	.	.	4.d\	.	.
8AA/	.	.	(8D\	.	.	.	.	.	.	.	.
8AA/	.	.	8F#\)	.	.	.	.	.	.	.	.
8AA/J	.	.	[8F#\J	.	.	8A\)	.	.	[8d^\	.	.
=64	=64	=64	=64	=64	=64	=64	=64	=64	=64	=64	=64
*	*	*	*	*	*	*tremolo	*	*	*	*	*
!	!	!	!	!	!	!LO:X:t=......	!	!	!	!	!
8AA/L	.	.	8F#\L]	.	.	8G'\L	.	.	8d\L]	.	.
.	.	.	(8qF#/	.	.	.	.	.	(8qd/	.	.
8AA/	.	.	(16E\L)	.	.	8G'\	.	.	(16c#\L)	.	.
.	.	.	16D\JJ	.	.	.	.	.	16B\JJ	.	.
*	*	*	*tremolo	*	*	*	*	*	*	*	*
!	!	!	!LO:X:t=....	!	!	!	!	!	!	!	!
8AA/	.	.	8E'\L	.	.	8G'\	.	.	4.c#\	.	.
8AA/	.	.	8E'\	.	.	8G'\	.	.	.	.	.
8AA/	.	.	8E'\	.	.	8G'\	.	.	.	.	.
8AA/J	.	.	8E'\J)	.	.	8G'\J	.	.	8d\)	.	.
*	*	*	*Xtremolo	*	*	*Xtremolo	*	*	*	*	*
=65	=65	=65	=65	=65	=65	=65	=65	=65	=65	=65	=65
8AA/L	.	.	(8.D/L	.	.	8G\L	.	.	(8.f#\L	.	.
8AA/	.	.	.	.	.	8G\J	.	.	.	.	.
.	.	.	16C#/Jk)	.	.	.	.	.	16e\Jk)	.	.
8AA/	.	.	4C#/	.	.	4A\	.	.	4.e\	.	.
8AA/	.	.	.	.	.	.	.	.	.	.	.
8AA/	.	.	8r	.	.	8r	.	.	.	.	.
8AA/J	.	.	8A\	.	.	8A'\	.	.	8Av\	.	.
*Xtremolo	*	*	*	*	*	*	*	*	*	*	*
=66	=66	=66	=66	=66	=66	=66	=66	=66	=66	=66	=66
4.AA/ 4.DD/	.	.	8F#'\L	.	.	8A'\L	.	.	(8.f#\L	.	.
.	.	.	8F#'\J	.	.	8A'\J	.	.	.	.	.
.	.	.	.	.	.	.	.	.	16e'\Jk)	.	.
.	.	.	8F#'\L	.	.	8A'\L	.	.	(8d'\L	.	.
8AA/L 8DD/	.	.	(8F#\	.	.	(8A\	.	.	8c#'\	.	.
8AA/ 8DD/	.	.	8D\)	.	.	8F#\)	.	.	8B'\	.	.
8AA/J 8DD/	.	.	8F#'\J	.	.	8A'\J	.	.	8A'\J)	.	.
=67	=67	=67	=67	=67	=67	=67	=67	=67	=67	=67	=67
4.GG/	.	.	8.D\L	.	.	(8.A\L	.	.	(8.c#\L	.	.
.	.	.	16D\Jk	.	.	16G\Jk)	.	.	16B\Jk)	.	.
.	.	.	8D\L	.	.	8G\L	.	.	(4.B^\	.	.
8D/L 8GG/	.	.	8G\	.	.	8B\	.	.	.	.	.
8D/ 8GG/	.	.	8G\	.	.	8B\	.	.	.	.	.
8D/J 8GG/	.	.	8D\J	.	.	8G\J	.	.	8B'\)	.	.
!!LO:LB:g=original
=68	=68	=68	=68	=68	=68	=68	=68	=68	=68	=68	=68
*tremolo	*	*	*	*	*	*tremolo	*	*	*	*	*
8AA/L	<	.	8C#/L	.	.	8A\L	.	.	(8.A\L	.	.
8AA/	.	.	8D/J	<	.	8A\	.	.	.	.	.
.	.	.	.	.	.	.	.	.	16B\Jk)	<	.
8AA/	.	.	8E\L	.	.	8A\	<	.	(8c#'\L	.	.
8AA/	.	.	8F#\	.	.	8A\J	.	.	8d'\)	.	.
*	*	*	*	*	*	*Xtremolo	*	*	*	*	*
8AA/	.	.	8G\	.	.	8B~\L	.	.	8e~\	.	.
8AA/J	[[	.	8A\J	[	.	8c#~\J	[	.	8g~\J	[	.
*Xtremolo	*	*	*	*	*	*	*	*	*	*	*
=69	=69	=69	=69	=69	=69	=69	=69	=69	=69	=69	=69
8DD/L	sf	.	(8.B\L	sf	.	(8.d\L	sf	.	(8.g\L	sf	.
8D/J	.	.	.	.	.	.	.	.	.	.	.
.	.	.	16A\Jk)	.	.	16d~\Jk)	.	.	16f#\Jk)	.	.
8DD'/L	.	.	8A'\L	.	.	8d'\L	.	.	(4.f#^\	.	.
8FF#^/	.	.	8F#^\	.	.	8F#^\	.	.	.	.	.
8AA^/	.	.	8A^\	.	.	8A^\	.	.	.	.	.
!LO:TX:b:t=un poco piú lento	!	!	!LO:TX:b:t=un poco piú lento	!	!	!LO:TX:b:t=un poco piú lento	!	!	!LO:TX:b:t=un poco piú lento	!	!
8FF#^/J	.	.	8F#^\J	.	.	8F#^\J	.	.	8A\)	.	.
=70	=70	=70	=70	=70	=70	=70	=70	=70	=70	=70	=70
8DD/L	.	.	8A\L 8D\	.	.	8d\L	.	.	(8.f#\L	.	.
8AA/J	.	.	8E\J	.	.	8A\J	.	.	.	.	.
.	.	.	.	.	.	.	.	.	16e'\Jk)	<	.
8D/L	<	.	8F#\L	<	.	8A\L	.	.	8d'\L	.	.
8C#/	.	.	8F#\	.	.	8A\	<	.	8d'\	.	.
8BB/	.	.	8G\	.	.	8d\	.	.	(8g\	.	.
8AA/J	[	.	8A\J	[	.	8d\J	[	.	8f#\J)	[	.
=71	=71	=71	=71	=71	=71	=71	=71	=71	=71	=71	=71
4.GG/	.	.	(8.B\L	.	.	8.B\L	.	.	(8.f#\L	.	.
.	.	.	16G\Jk)	.	.	16B\Jk	.	.	16e\Jk)	.	.
.	.	.	(4.E\	pp	.	(8B\L	pp	.	(4.e\	.	.
!LO:TX:b:t=IV.	!LO:DY:rj:t=pp	!	!	!	!	!	!	!	!	!	!
(8FF#/L	pp	1	.	.	.	8A#X\	.	.	.	.	.
8GG/	.	2	.	.	.	8B\)	.	.	.	.	.
8GG#X/J)	.	3	8E#X\)	.	.	8B'\J	.	.	8d\)	.	1
=72	=72	=72	=72	=72	=72	=72	=72	=72	=72	=72	=72
8AA/	.	.	8F#\	.	.	8A\ 8D\	.	.	(8.d\L	.	1
8r	.	.	8r	.	.	8r	.	.	.	.	.
.	.	.	.	.	.	.	.	.	16f#\K)	.	1
8r	.	.	8r	.	.	8r	.	.	8a\J	.	.
!	!	!	!	!	!	!	!	!	!LO:TX:a:t=morendo.	!	!
(8AA'/L	ppp	.	(8A^^\L	ppp	.	(8F#'v\L	ppp	.	(8A'v\L	ppp	.
8AA'/	.	.	8G\)	.	.	8G'\	.	.	8B'\	.	.
!LO:TX:b:t=rit	!	!	!LO:TX:b:t=rit	!	!	!LO:TX:b:t=rit	!	!	!LO:TX:b:t=rit	!	!
8AA'/J)	.	.	8E'\J	.	.	8G'\J)	.	.	8c#'\J)	.	.
=73	=73	=73	=73	=73	=73	=73	=73	=73	=73	=73	=73
!LO:N:vis=8..	!	!	!	!	!	!	!	!	!	!	!
(8.AA/L	.	.	(4G\ 4C#\	.	.	[4A\ 4E\	.	.	(4e\	.	.
32BB/LL	.	.	.	.	.	.	.	.	.	.	.
32C#/JJJ)	.	.	.	.	.	.	.	.	.	.	.
8D\	.	.	8F#\)	.	.	8A\]	.	.	8d\)	.	.
8r	.	.	8r	.	.	8r	.	.	8r	.	.
!	!	!	!	!	!	!LO:TX:b:B:t=fine.	!	!	!	!	!
4r	.	.	4r	.	.	4r	.	.	4r	.	.
==	==	==	==	==	==	==	==	==	==	==	==
*-	*-	*-	*-	*-	*-	*-	*-	*-	*-	*-	*-
!!!system-decoration: [(s1,s2,s3,s4)]
!!!RDF**kern: > = above
!!!RDF**kern: < = below
!!!RDF**dynam: p = po
!!!RDF**dynam: pp = ppo
!!!RDF**dynam: mf = mfo
!!!RDF**dynam: sf = sfo
!!!RDF**dynam: sfz = sfz.
!!!RDF**dynam: f = for.
!!!RDF**dynam: ff = ffor
!!!RDF**kern: | = vertical stroke
!!!ENC: Katarzyna Serwa
!!!END: 2021-09-06
!!!EED: Andrzej Borzym
!!!EEV: 2021-10-04
